src/assets/icons/logo_small.svg

<svg width="61" height="62" viewBox="0 0 61 62" fill="none" xmlns="http://www.w3.org/2000/svg">
    <path d="M56.6207 12.2695V6.21243H50.9607V0H44.7852H16.9903H11.2169V5.64295H4.60842V11.1513H0V44.9676H5.61877V50.476H11.2169V56.0361H16.9903V61.6687H45.2698V55.5494H56.6207V49.4923C58.0228 49.4923 59.4353 49.4923 60.8374 49.4923C60.8374 37.0882 60.8374 24.684 60.8374 12.2799C59.4353 12.2695 58.0228 12.2695 56.6207 12.2695ZM26.867 49.4716H16.1243V45.8581H12.5056V42.2238L8.8457 42.2134V38.5999H5.30948V16.991L8.83539 17.0117V13.3774H8.86632H12.4335V9.74315H16.0419V6.19172H26.867V9.7328H19.6502V9.74315H19.6605V13.3774H16.0522H16.0315L16.0212 17.0117H12.4232V20.6253H8.8457V35.007H12.4232V38.5895H16.1243V42.2031H19.743V45.827H23.3205L23.3308 34.9863L30.7641 34.9967V31.4038H34.3828V24.1767H37.9087V35.0381H34.3828V38.6206L26.8773 38.6413L26.867 49.4716ZM52.0432 38.6724L48.5173 38.6516V42.2859H48.507H44.9399V45.9202H41.3315V49.4716H30.5063V45.9305H37.7231V45.9202H37.7128V42.2859H41.3212H41.3418L41.3521 38.6516H44.9502V35.0381H48.5276V20.6563H44.9502V17.0738H41.249V13.4603H37.6303V9.83634H34.0529L34.0425 20.677L26.6093 20.6667V24.2595H22.9906V31.4866H19.4647V20.6253H22.9906V17.0428L30.496 17.022L30.5063 6.20207H41.249V9.81563H44.8677V13.4499L48.5276 13.4603V17.0738H52.0639L52.0432 38.6724Z" fill="white"/>
</svg>

<svg width="61" height="62" fill="none" xmlns="http://www.w3.org/2000/svg"><path d="M56.62 12.27V6.212h-5.66V0H11.218v5.643H4.608v5.508H0v33.817h5.619v5.508h5.598v5.56h5.773v5.633h28.28v-6.12h11.35v-6.057h4.217V12.28c-1.402-.01-2.814-.01-4.216-.01zM26.868 49.471H16.124v-3.614h-3.618v-3.634l-3.66-.01V38.6H5.309V16.99l3.526.02v-3.634h3.599V9.743h3.608V6.192h10.825v3.54H19.65v.011h.01v3.634h-3.628l-.01 3.635h-3.599v3.613H8.846v14.382h3.577v3.583h3.701v3.613h3.619v3.624h3.578l.01-10.84 7.433.01v-3.593h3.619v-7.227h3.526v10.861h-3.526v3.583l-7.506.02-.01 10.83zm25.176-10.8-3.526-.02v3.634H44.94v3.634h-3.608v3.552H30.505V45.93h7.217v-.01h-.01v-3.635h3.628l.011-3.634h3.598v-3.614h3.578V20.656H44.95v-3.582H41.25V13.46H37.63V9.836h-3.577l-.01 10.841-7.434-.01v3.592h-3.618v7.228h-3.526V20.625h3.526v-3.582l7.505-.021.01-10.82H41.25v3.614h3.619v3.634l3.66.01v3.614h3.536l-.02 21.598z" fill="#fff"/></svg>
